X: 1212
T: The Machine without Horses
P: The Machine without Horses
C:Trad.
R:Jig (8x32)
B:RSCDS 12-12
Z:Anselm Lingnau <anselm@strathspey.org>
M:6/8
L:1/8
K:G
D|"G"G3/2A/B/c/ dBG|Gge dBG|"Am"cec "G/B"dBd|"C"AB"A7"G "D7"FED|\
  "G"G3/2A/B/c/ dBG|Ggf "Em"efg|
                                "D/A"afd "A7"ge^c|"D"d3 "D7"D2:|\
d|"G"dBd dBd|"D/F#"cAc cAc|"G"Bdg "G/B"dBG|"C"AB"A7"G "D7"FED|
  "G"dBd dBd|"D/F#"cAc cAc|"G"Bdg "G/B"dBG|"D7"cAF "G"G3||\
  "G"dBd dBd|"D/F#"cAc cAc|
                           "G"Bdg "G/B"dBG|"C"AB"A7"G "D7"FED|\
  "G"GDG BGB|dBd "G7/B"g2 d|"C"efg "D7"agf|"G"g3 G2|]
%%center Book12/1212-Machine_without_Horses-AL.abc

%%newpage
%%center OTHER TRANSCRIPTIONS
%%sep 3 1 500
%%sep 1 1 500

%%sep 1 1 500
%%sep 1 1 500

